Arcticons/scalable/apps/cajaarena.svg

<svg viewBox="0 0 48 48" xmlns="http://www.w3.org/2000/svg">
 <defs>
  <style>.a{fill:none;stroke:#fff;stroke-linecap:round;stroke-linejoin:round;}.b{fill:#fff;}</style>
 </defs>
 <path class="a" d="m40.5 5.5h-33a2 2 0 0 0-2 2v33a2 2 0 0 0 2 2h33a2 2 0 0 0 2-2v-33a2 2 0 0 0-2-2z"/>
 <path class="a" d="m34.72 23.1184h7.78"/>
 <path class="a" d="m28.3764 23.1184h4.9361"/>
 <path class="a" d="m5.5 23.1184h14.5667"/>
 <path class="a" d="m42.5 29.9187-2.953-2.953-0.49 0.49-5.041-5.0408-3.18 3.18-6.623-6.6229-15.256 15.2561-0.49-0.49-2.967 2.9668"/>
 <circle class="b" cx="24.4897" cy="33.9589" r=".75"/>
 <circle class="b" cx="14.1713" cy="33.9589" r=".75"/>
 <circle class="b" cx="26.4488" cy="37.5581" r=".75"/>
 <circle class="b" cx="22.0312" cy="38.9222" r=".75"/>
 <circle class="b" cx="9.7305" cy="37.5507" r=".75"/>
 <circle class="b" cx="19.1999" cy="32.7181" r=".75"/>
 <circle class="b" cx="21.159" cy="27.1018" r=".75"/>
 <circle class="b" cx="27.4937" cy="27.4283" r=".75"/>
 <circle class="b" cx="24.1893" cy="21.7164" r=".75"/>
 <circle class="b" cx="35.3305" cy="27.5589" r=".75"/>
 <circle class="b" cx="35.3958" cy="31.7385" r=".75"/>
 <circle class="b" cx="39.1182" cy="34.6773" r=".75"/>
 <circle class="b" cx="37.6162" cy="38.366" r=".75"/>
 <circle class="b" cx="33.8937" cy="40.0324" r=".75"/>
 <circle class="b" cx="30.8243" cy="35.9181" r=".75"/>
 <circle class="b" cx="30.759" cy="30.8242" r=".75"/>
 <circle class="b" cx="29.1264" cy="40.3589" r=".75"/>
 <circle class="b" cx="16.4254" cy="37.616" r=".75"/>
 <circle class="b" cx="22.0312" cy="18.0608" r=".75"/>
 <circle class="b" cx="26.2986" cy="18.0608" r=".75"/>
 <circle class="b" cx="24.3557" cy="16.584" r=".75"/>
 <circle class="b" cx="26.52" cy="13.4246" r=".75"/>
 <circle class="b" cx="24.5771" cy="11.9478" r=".75"/>
 <circle class="b" cx="26.1103" cy="10.1382" r=".75"/>
 <circle class="b" cx="26.3892" cy="7.0833" r=".75"/>
 <circle class="b" cx="21.5204" cy="8.2279" r=".75"/>
 <circle class="b" cx="23.5763" cy="9.9496" r=".75"/>
 <circle class="b" cx="21.9401" cy="11.5718" r=".75"/>
 <circle class="b" cx="22.0731" cy="14.9158" r=".75"/>
 <circle class="b" cx="24" cy="14.1658" r=".75"/>
 <circle class="b" cx="24.3263" cy="7.5599" r=".75"/>
</svg>

<svg xmlns="http://www.w3.org/2000/svg" viewBox="0 0 48 48"><defs><style>.a{fill:none;stroke:#fff;stroke-linecap:round;stroke-linejoin:round;}.b{fill:#fff;}</style></defs><path class="a" d="M40.5,5.5H7.5a2,2,0,0,0-2,2v33a2,2,0,0,0,2,2h33a2,2,0,0,0,2-2V7.5A2,2,0,0,0,40.5,5.5Z"/><path class="a" d="M34.72,23.1184H42.5"/><path class="a" d="M28.3764,23.1184h4.9361"/><path class="a" d="M5.5,23.1184H20.0667"/><path class="a" d="M42.5,29.9187l-2.953-2.953h0l-.49.49L34.016,22.4149h0l-3.18,3.18-6.623-6.6229L8.957,34.2281l-.49-.49L5.5,36.7049"/><circle class="b" cx="24.4897" cy="33.9589" r="0.75"/><circle class="b" cx="14.1713" cy="33.9589" r="0.75"/><circle class="b" cx="26.4488" cy="37.5581" r="0.75"/><circle class="b" cx="22.0312" cy="38.9222" r="0.75"/><circle class="b" cx="9.7305" cy="37.5507" r="0.75"/><circle class="b" cx="19.1999" cy="32.7181" r="0.75"/><circle class="b" cx="21.159" cy="27.1018" r="0.75"/><circle class="b" cx="27.4937" cy="27.4283" r="0.75"/><circle class="b" cx="24.1893" cy="21.7164" r="0.75"/><circle class="b" cx="35.3305" cy="27.5589" r="0.75"/><circle class="b" cx="35.3958" cy="31.7385" r="0.75"/><circle class="b" cx="39.1182" cy="34.6773" r="0.75"/><circle class="b" cx="37.6162" cy="38.366" r="0.75"/><circle class="b" cx="33.8937" cy="40.0324" r="0.75"/><circle class="b" cx="30.8243" cy="35.9181" r="0.75"/><circle class="b" cx="30.759" cy="30.8242" r="0.75"/><circle class="b" cx="29.1264" cy="40.3589" r="0.75"/><circle class="b" cx="16.4254" cy="37.616" r="0.75"/><circle class="b" cx="22.0312" cy="18.0608" r="0.75"/><circle class="b" cx="26.2986" cy="18.0608" r="0.75"/><circle class="b" cx="24.3557" cy="16.584" r="0.75"/><circle class="b" cx="26.52" cy="13.4246" r="0.75"/><circle class="b" cx="24.5771" cy="11.9478" r="0.75"/><circle class="b" cx="26.1103" cy="10.1382" r="0.75"/><circle class="b" cx="26.3892" cy="7.0833" r="0.75"/><circle class="b" cx="21.5204" cy="8.2279" r="0.75"/><circle class="b" cx="23.5763" cy="9.9496" r="0.75"/><circle class="b" cx="21.9401" cy="11.5718" r="0.75"/><circle class="b" cx="22.0731" cy="14.9158" r="0.75"/><circle class="b" cx="24" cy="14.1658" r="0.75"/><circle class="b" cx="24.3263" cy="7.5599" r="0.75"/></svg>
